Newaita-dark/.DP/16/guake-indicator.svg

<svg xmlns="http://www.w3.org/2000/svg" xmlns:xlink="http://www.w3.org/1999/xlink" width="16px" height="16px" viewBox="0 0 16 16" version="1.1">
<g id="surface1">
<path style=" stroke:none;fill-rule:nonzero;fill:rgb(93.333334%,93.333334%,93.333334%);fill-opacity:1;" d="M 2.644531 2.769531 C 2.28125 2.769531 1.984375 3.066406 1.984375 3.433594 L 1.984375 12.695312 C 1.984375 13.058594 2.28125 13.355469 2.644531 13.355469 L 13.230469 13.355469 C 13.597656 13.355469 13.890625 13.058594 13.890625 12.695312 L 13.890625 3.433594 C 13.890625 3.066406 13.597656 2.769531 13.230469 2.769531 Z M 6.609375 5.082031 C 6.785156 5.082031 6.957031 5.15625 7.082031 5.28125 L 9.394531 7.597656 C 9.527344 7.726562 9.59375 7.90625 9.589844 8.089844 C 9.582031 8.273438 9.5 8.445312 9.359375 8.5625 L 7.042969 10.546875 C 6.867188 10.707031 6.617188 10.753906 6.390625 10.675781 C 6.167969 10.597656 6.003906 10.40625 5.960938 10.171875 C 5.917969 9.9375 6.003906 9.699219 6.1875 9.546875 L 7.960938 8.027344 L 6.148438 6.214844 C 5.957031 6.027344 5.898438 5.742188 6 5.492188 C 6.097656 5.246094 6.339844 5.082031 6.609375 5.082031 Z M 6.609375 5.082031 "/>
</g>
</svg>

<svg xmlns="http://www.w3.org/2000/svg" width="16pt" height="16pt" viewBox="0 0 16 16"><path d="M2.645 2.77a.663.663 0 0 0-.66.664v9.261c0 .364.296.66.66.66H13.23a.66.66 0 0 0 .66-.66V3.434a.66.66 0 0 0-.66-.664zm3.964 2.312c.176 0 .348.074.473.2l2.313 2.316c.132.129.199.308.195.492a.649.649 0 0 1-.23.473l-2.317 1.984a.659.659 0 1 1-.855-1l1.773-1.52-1.813-1.812a.662.662 0 0 1 .461-1.133zm0 0" fill="#bdbdbd"/></svg>
